!!!COM: Ockeghem, Johannes
!!!CDT: ~1425-1497/02/06
!!!OTL: Il ne men chault
!!!AGN: Song; Chanson
!!!SCT: Ock3006
!!!SCA: Ock3006
!!!voices: 3
**kern	**text	**text	**text	**kern	**text	**text	**text	**kern	**text	**text	**text
*staff3	*staff3	*staff3	*staff3	*staff2	*staff2	*staff2	*staff2	*staff1	*staff1	*staff1	*staff1
*Ivox	*	*	*	*Ivox	*	*	*	*Ivox	*	*	*
*I"Contra	*	*	*	*I"Tenor	*	*	*	*I"Discantus	*	*	*
*I'C	*	*	*	*I'T	*	*	*	*I'D	*	*	*
*clefF4	*	*	*	*clefGv2	*	*	*	*clefG2	*	*	*
*k[]	*	*	*	*k[]	*	*	*	*k[]	*	*	*
*M2/1	*	*	*	*M2/1	*	*	*	*M2/1	*	*	*
*met(C|)	*	*	*	*met(C|)	*	*	*	*met(C|)	*	*	*
=1-	=1-	=1-	=1-	=1-	=1-	=1-	=1-	=1-	=1-	=1-	=1-
!!LO:TX:Z=12:t=Form&colon; rondeau
[0D	II	Qu'on	Car	0d	II	Qu'on	Car	0a	II	Qu'on	Car
=2	=2	=2	=2	=2	=2	=2	=2	=2	=2	=2	=2
0D_	ne m'en	m'en lou	par tout	1d	ne	m'en	par	1b-	ne	m'en	par
.	.	.	.	2.d	m'en	lou-	tout	1a	m'en	lou-	tout
.	.	.	.	4c	.	.	.	.	.	.	.
=3	=3	=3	=3	=3	=3	=3	=3	=3	=3	=3	=3
0D]	chault plus	-e ne	m'en vous	1A	chault	-e	m'en	1f	chault	-e	m'en
.	.	.	.	1A	plus	ne	vous	1f	plus	ne	vous
=4	=4	=4	=4	=4	=4	=4	=4	=4	=4	=4	=4
0GG	de	qu'on	tiens	1B-	.	.	.	1g	.	.	.
.	.	.	.	1B-i	de	qu'on	tiens	1g	de	qu'on	tiens
=5	=5	=5	=5	=5	=5	=5	=5	=5	=5	=5	=5
1D	nul	m'en	et	0A	nul	m'en	et	2.a	nul	m'en	et
.	.	.	.	.	.	.	.	4b-i	.	.	.
1C	.	.	.	.	.	.	.	2cc	.	.	.
.	.	.	.	.	.	.	.	2cc	a-	bla-	cla-
=6	=6	=6	=6	=6	=6	=6	=6	=6	=6	=6	=6
1D	a-	bla-	cla-	0d	a-	bla-	cla-	2a	.	.	.
.	.	.	.	.	.	.	.	2.b-i	.	.	.
1G	.	.	.	.	.	.	.	.	.	.	.
.	.	.	.	.	.	.	.	4a	.	.	.
.	.	.	.	.	.	.	.	4g	.	.	.
.	.	.	.	.	.	.	.	4f	.	.	.
=7	=7	=7	=7	=7	=7	=7	=7	=7	=7	=7	=7
0A	-me	-me,	-me	0c	-me	-me,	-me	1e	-me	-me,	-me
.	.	.	.	.	.	.	.	2r	.	.	.
.	.	.	.	.	.	.	.	[2a	Fors	Quoy	Que
=8	=8	=8	=8	=8	=8	=8	=8	=8	=8	=8	=8
2F	Fors	Quoy	Que	0r	.	.	.	2a]	.	.	.
1E	.	.	.	.	.	.	.	1g	.	.	.
2D	.	.	.	.	.	.	.	2f	.	.	.
=9	=9	=9	=9	=9	=9	=9	=9	=9	=9	=9	=9
1A	.	.	.	1c	Fors	Quoy	Que	1e	de	qu'on	tant
1B-	de	qu'on	tant	1d	de	qu'on	tant	1d	vous	en	je
=10	=10	=10	=10	=10	=10	=10	=10	=10	=10	=10	=10
2.G	vous	en	je	1B-i	vous	en	je	1d	qui	di-	vueil
4F	.	.	.	.	.	.	.	.	.	.	.
1D	.	.	vueil	1A	qui	di-	vueil	2.f	mon	-roit,	et
.	.	.	.	.	.	.	.	4g	.	.	.
=11	=11	=11	=11	=11	=11	=11	=11	=11	=11	=11	=11
2r	.	.	.	1f	mon	-roit,	et	2.a	cueur	homme	que
2D	qui	di-	et	.	.	.	.	.	.	.	.
.	.	.	.	.	.	.	.	4b	.	.	.
2E	mon	-roit,	que	2e	cueur	homme	que	2cc	en-	ou	tant
[2G	cueur	hom-	tant	[2d	en-	ou	tant	[2b	-fla-	fem-	j'a-
=12	=12	=12	=12	=12	=12	=12	=12	=12	=12	=12	=12
2G]	.	.	.	2d]	.	.	.	2b]	.	.	.
2A	.	.	.	2c	.	.	.	1a	.	.	.
1E	.	-me	.	1Bni	-fla-	fem-	j'a-	.	.	.	.
.	.	.	.	.	.	.	.	2g#i	.	.	.
=13	=13	=13	=13	=13	=13	=13	=13	=13	=13	=13	=13
2r	.	.	.	1A	.	.	.	1a	-me	-me,	-me
2F	en-	ou	j'a-	.	.	.	.	.	.	.	.
2G	-fla-	fem-	.	2B-i	.	.	.	1r	.	.	.
4F	.	.	.	[2A	.	.	.	.	.	.	.
[4D	.	.	.	.	.	.	.	.	.	.	.
=14	=14	=14	=14	=14	=14	=14	=14	=14	=14	=14	=14
4D]	.	.	.	2A]	.	.	.	1a	A	lIz	Plus
8CL	.	.	.	.	.	.	.	.	.	.	.
8BBJ	.	.	.	.	.	.	.	.	.	.	.
2AA	.	.	.	2F	.	.	.	.	.	.	.
2GG	-me	-me,	-me	2G	.	.	.	2b-	vous	en	que
4D	A	lIz	Plus	2F	.	.	.	[2a	.	.	.
[4F	.	.	.	.	.	.	.	.	.	.	.
=15	=15	=15	=15	=15	=15	=15	=15	=15	=15	=15	=15
4F]	.	.	.	1D	-me	-me,	-me	2a]	.	.	.
4G	.	.	.	.	.	.	.	.	.	.	.
2A	.	.	.	.	.	.	.	2f	bien	ont	nul
2B-i	vous	en	que	1r	.	.	.	2g	loy-	tous	sans
2A	.	.	.	.	.	.	.	[2a	.	.	.
=16	=16	=16	=16	=16	=16	=16	=16	=16	=16	=16	=16
2.F	bien	ont	nul	1d	A	lIz	Plus	2a]	.	.	.
.	.	.	.	.	.	.	.	2f	.	.	.
4G	.	.	.	.	.	.	.	.	.	.	.
1A	loy-	tous	sans	2.c#i	vous	en	que	1e	-au-	beau	riens
.	.	.	.	4B	.	.	.	.	.	.	.
=17	=17	=17	=17	=17	=17	=17	=17	=17	=17	=17	=17
1D	-au-	.	.	1d	bien	ont	nul	1d	-ment	.	.
1C	-ment	beau	riens	2.G	loy-	tous	sans	2e	a-	gru-	ex-
.	.	.	.	.	.	.	.	[2g	.	.	.
.	.	.	.	4A	.	.	.	.	.	.	.
=18	=18	=18	=18	=18	=18	=18	=18	=18	=18	=18	=18
2r	.	.	.	1B-i	-au-	beau	riens	2g]	.	.	.
2D	a-	gru-	ex-	.	.	.	.	2f	.	.	.
2AA	.	.	.	2c	-ment	gru-	ex-	2e	.	.	.
2BB-i	.	.	.	2B-i	.	.	.	2d	.	.	.
=19	=19	=19	=19	=19	=19	=19	=19	=19	=19	=19	=19
2C	.	.	.	2A	.	.	.	2c	.	.	.
2BB-i	.	.	.	1B-i	.	.	.	1d	.	.	.
1GG	.	-mel-	-cep-	.	.	.	.	.	.	.	.
.	.	.	.	2G	a-	-mel-	-cep-	2B-i	.	-mel-	-cep-
=20	=20	=20	=20	=20	=20	=20	=20	=20	=20	=20	=20
0DN	-mer,	-ler.&	-ter,	0FN	-mer,	-ler.&	-ter,	0AN	-mer,	-ler.&	-ter,
=21	=21	=21	=21	=21	=21	=21	=21	=21	=21	=21	=21
0D	Sans	.	S'ilz	0B-	Sans	.	S'ilz	0r	.	.	.
=22	=22	=22	=22	=22	=22	=22	=22	=22	=22	=22	=22
1E-i	ja-	.	en	1c	ja-	.	en	0r	.	.	.
1E-i	-mais	.	de-	1c	-mais	.	de-	.	.	.	.
=23	=23	=23	=23	=23	=23	=23	=23	=23	=23	=23	=23
0D	vous	.	-voy-	0d	vous	.	-voy-	0f	Sans	.	S'ilz
=24	=24	=24	=24	=24	=24	=24	=24	=24	=24	=24	=24
0d	ha-	.	-ent	1G	.	.	.	1g	ja-	.	en
.	.	.	.	1B-i	.	.	.	1g	-mais	.	de-
=25	=25	=25	=25	=25	=25	=25	=25	=25	=25	=25	=25
1c	-ban-	.	tous	1A	.	.	.	1a	vous	.	-voy-
1B-i	.	.	.	1G	.	.	-ent	1d	ha-	.	-ent
=26	=26	=26	=26	=26	=26	=26	=26	=26	=26	=26	=26
2A	.	.	.	2r	.	.	.	1f	-ban-	.	tous
2F	.	.	.	1d	ha-	.	tous	.	.	.	.
2G	-don-	.	cre-	.	.	.	.	1e	-don-	.	cre-
2A	.	.	.	2c#i	.	.	.	.	.	.	.
=27	=27	=27	=27	=27	=27	=27	=27	=27	=27	=27	=27
1D	-ner,	.	-ver	1d	-ban-	.	.	1d	-ner,	.	-ver
2r	.	.	.	1f	-don-	.	cre-	1r	.	.	.
2D	A	.	Et	.	.	.	.	.	.	.	.
=28	=28	=28	=28	=28	=28	=28	=28	=28	=28	=28	=28
2.E	tous-	.	deus-	1e	-ner,	.	-ver	1c	A	.	Et
4F	.	.	.	.	.	.	.	.	.	.	.
2.G	.	.	.	[1d	.	.	.	2B-i	tous-	.	deus-
.	.	.	.	.	.	.	.	[2d	.	.	.
4D	.	.	.	.	.	.	.	.	.	.	.
=29	=29	=29	=29	=29	=29	=29	=29	=29	=29	=29	=29
2F	.	.	.	1d]	.	.	.	2d]	.	.	.
2G	.	.	.	.	.	.	.	2B-i	.	.	.
2A	.	.	.	1c	A	.	Et	1A	.	.	.
2F	.	.	.	.	.	.	.	.	.	.	.
=30	=30	=30	=30	=30	=30	=30	=30	=30	=30	=30	=30
2G	-jours	.	-se	2B-i	tous-	.	deus-	1G	-jours	.	-se
1B-i	.	.	.	1d	.	.	.	.	.	.	.
.	.	.	.	.	.	.	.	1G	es-	.	per-
4A	es-	.	.	2B-i	.	.	.	.	.	.	.
4G	.	.	.	.	.	.	.	.	.	.	.
=31	=31	=31	=31	=31	=31	=31	=31	=31	=31	=31	=31
2.F	-tre	.	per-	1A	.	.	.	1c	-tre	.	.
4E	.	.	.	.	.	.	.	.	.	.	.
2.G	.	.	-dre	1G	-jours	.	-se	2.B-i	vos-	.	-dre
4C	.	.	.	.	.	.	.	4c	.	.	.
=32	=32	=32	=32	=32	=32	=32	=32	=32	=32	=32	=32
1G	.	.	.	2B-i	es-	.	per-	2.d	.	.	.
.	.	.	.	2c	.	.	.	.	.	.	.
.	.	.	.	.	.	.	.	4e-i	.	.	.
2F	vos-	.	du	2d	-tre	.	.	2d	.	.	.
2D	-tre	.	.	4c	.	.	.	2f	-tre	.	du
.	.	.	.	4d	.	.	.	.	.	.	.
=33	=33	=33	=33	=33	=33	=33	=33	=33	=33	=33	=33
2C	da-	.	corps	2e-i	vos-	.	-dre	2g	da-	.	corps
2.F	.	.	.	1d	.	.	.	2.a	.	.	.
8EL	.	.	.	.	.	.	.	8gL	.	.	.
8FJ	.	.	.	.	.	.	.	8aJ	.	.	.
2G	.	.	.	2g	-tre	.	du	2b-	.	.	.
=34	=34	=34	=34	=34	=34	=34	=34	=34	=34	=34	=34
2A	.	.	.	2.f	da-	.	corps	2a	.	.	.
2B-i	.	.	.	.	.	.	.	2dd	.	.	.
.	.	.	.	4d	.	.	.	.	.	.	.
2A	.	.	.	2e	.	.	.	4cc	.	.	.
.	.	.	.	.	.	.	.	4a	.	.	.
2D	.	.	.	2d	.	.	.	2b-i	.	.	.
=35	=35	=35	=35	=35	=35	=35	=35	=35	=35	=35	=35
2E-i	.	.	l'a-	2G	.	.	l'a-	2cc	.	.	l'a-
2D	.	.	.	2.d	.	.	.	2b-i	.	.	.
1F	.	.	.	.	.	.	.	4a	.	.	.
.	.	.	.	4c	.	.	.	2a	.	.	.
.	.	.	.	2d	.	.	.	.	.	.	.
.	.	.	.	.	.	.	.	8gL	.	.	.
.	.	.	.	.	.	.	.	8fJ	.	.	.
=36	=36	=36	=36	=36	=36	=36	=36	=36	=36	=36	=36
1G	.	.	.	2.G	.	.	.	4e	.	.	.
.	.	.	.	.	.	.	.	4d	.	.	.
.	.	.	.	.	.	.	.	1g	.	.	.
.	.	.	.	4B-i	.	.	.	.	.	.	.
1D	.	.	.	1A	.	.	.	.	.	.	.
.	.	.	.	.	.	.	.	2f#i	.	.	.
=37	=37	=37	=37	=37	=37	=37	=37	=37	=37	=37	=37
0GGl	-me.	.	-me.	0Gl	-me.	.	-me.	0gl	-me.	.	-me.
==	==	==	==	==	==	==	==	==	==	==	==
*-	*-	*-	*-	*-	*-	*-	*-	*-	*-	*-	*-
!!!RDF**kern: l = long note in original notation
!!!RDF**kern: i = editorial accidental
!!!RDF**kern: V = start of tuplet marker
!!!RDF**kern: Z = end of tuplet marker
!!!RDF**kern: N = signum congruentiae
!!!ENC: Jesse Rodin 16 April 2018
!!!END: 2018/07/16/
!!!EED: Jesse Rodin
!!!EEV: 2018/07/23/
!!!ONB: Translated from MusicXML and edited on 2018/07/23/ by Craig Sapp
!!muse2ps: C^@{COM}^i2I150v95,95,120Q16l2500c75z18
